X: 35156
T: Ronde Des Voyageurs
R: polka
M: 2/4
K: Aminor
A|:A>A cd|e2 e2|f>e fa|ea a2|
G2 Bc|d2 d(f/g/|f)d Be|1 cA AE:|2 cA AB||
K:A
c/B/c/B/ ce|A>B Ac/d/|ea gf|g2 fe|
d>c df|B3=g|g>a g/f/e/g/|f/e/c a2|
(c/e/)e/e/ e/f/e/c/|AA/B/ Ac/d/|ea gf|b2f>g|
a/a/a/a/ g/g/f/g/|fe c(b/c'/|d')e f/e/f/g/|a/f/e/c/ A2||

